packages/ui-icons/svg/Solid/code.svg

<svg viewBox="0 0 1920 1920" version="1.1" xmlns="http://www.w3.org/2000/svg">
    <path d="M590.453817,251 L716.417298,355.969568 L213.438121,959.544581 L716.417298,1563.11959 L590.453817,1668.08916 L0,959.544581 L590.453817,251 Z M1328.84912,251 L1919.30294,959.544581 L1328.84912,1668.08916 L1202.77629,1563.11959 L1705.86482,959.544581 L1202.77629,355.969568 L1328.84912,251 Z" stroke="none" stroke-width="1" fill-rule="evenodd"/>
</svg>

<svg viewBox="0 0 1920 1920" xmlns="http://www.w3.org/2000/svg">
    <path d="m590.454 251 125.963 104.97-502.979 603.575 502.98 603.575-125.964 104.97L0 959.544 590.454 251Zm738.395 0 590.454 708.545-590.454 708.544-126.073-104.97 503.089-603.574-503.089-603.575L1328.85 251Z" fill-rule="evenodd"/>
</svg>
